!!!OTL: Anna im Grabe (54c), S. 174f
!!!id: T0197
**kern
*clefG2
*k[]
*G:
{4d
=1
8g
8g
8b
8b
4d
4g
=2
4e
8g
8e
4d}
=3
{4d
=4
4g
4g
4a
8a
8b
=5
4a}
2r
=6
{8d
8d
=7
4.cc
8b
4a
8dd
8cc
=8
4.b
8a
4g}
=9
{4d
=10
4a
8a
8cc
4b
4a
=11
4g}
2r
==
*-
!!!minrhy: 8
!!!meters: 4/4 ]  ZZ[4
!!!cut: Anna im Grabe (54c), S. 174f
!!!reg: Luxemburg
!!!trd: Singendes Volk, Esch-Alzette 1937 posth.
!!!rhy1: X_  XXXXX_X_  X_XXX_
!!!rhy2: X_  X_X_X_XX  X_0__
!!!key: T0197  08  G 4/4 ]  ZZ[4
!!!mod: SECHSTONSKALA DUR ?]  AMBITUS[8
!!!kad: -5211
!!!akz: 1-5-6-5_122_4231_231_
!!!fot: 'a__b__c__d__
!!!for: 'a__b__c__d__
!!!fok: '^__/__^a_^a_
!! PHRAS[AUFTAKTIG]
!!!fkt: Liebeslieder
!!!bem: Heffingen, fff Anna Kimmel, 12.4.1933
!! THILL, Mathias:
!! PR[0] 2K[6] 2G[13] 3K[6] 3G[0] 4A[13] 4Ü[0] 5A[0] 6K[0] 6G[0]
!! 7K[0] 7G[0] 8A[0] MEHR[0] SI[38] ABS[16] SR[19] SP[19]
!! ST[4] 2k[19] 2g[38] 3k[0] 3g[0] 4d[6] 4ü[0] 5d[0] 6k[0] 6g[0]
!! 7k[0] 7g[0] 8d[0] mehr[0] si[63] dm[-25] sr[56] sp[6]
!! 1F[44] 2F[39] 3F[6] 4F[0] LF[0] 2P[11] 3P[0] 4P[0] TRI[0] DF[4] AB[18]
!! TF[0] U3K[0] U3[0] U4[0] U4Ü[0] U5[6] U6K[0] U6[0] U7K[0] U7[0]
!! N1[18] N2K[0] N2[29] N3K[0] N3[24] N4[18] N4Ü[0] N5[6] N6K[0] N6[0]
!!!n7k: 0] N7[0] O1[0] O2K[0] O2[0] O3K[0] O3[0] HÖ[0
